X: 4182
T: Mrs Blair of Avontown's Favorite
%R: air, strathspey
N: This is version 1, for ABC software that doesn't understand voice overlays or crescendo symbols.
B: Niel Gow & Sons "A Fourth Collection of Strathspey Reels, etc." v.4 p.18 #2
Z: 2022 John Chambers <jc:trillian.mit.edu>
M: 2/4
L: 1/8
Q: "Slow"
K: D
% - - - - - - - - - -
V: 1 staves=2
{c}d |\
A>B AF | {F}A2 Td>e | (f.g)(e.f) | (e/d/)(c/B/) (A/B/)(c/d/) |\
A>B (B/A/)(G/F/) | A2 Td>e | .f(f/g/) .e(e/f/) | {c}d2 [dAF] ::
f |\
{f}g2 ec | df {^g}a2 | (f/g/)(a/g/) (f/e/)(d/c/) | "cresc. . .".d/.e/.f/.g/ a>d |!p!\
~A>B (B/A/)(G/F/) | A2 Td>e | (fg)(e.f) | {c}d2 [dAF] :|
% - - - - - - - - - -
% Voice 2 preserves the staff layout in the book.
V: 2 clef=bass middle=d
z | dd' d2 | fd fa | d'2 c'2 | ba/g/ fz | [fd2]g [f2d2] | fdfa | d'2 a2 | dAD ::
z | zAcA | d2 D2 | zA cA | "cresc. . ."d2 Dz |!p! Dd D2 | FD FG | A2 A2 | DdD :|
